X: 27879
T: Mountain Ash, The
R: reel
M: 4/4
K: Adorian
AB|:c3B cded|cAdc BG G2|cAAB cded|cABG EAAB|
c3B cdef|gedc BG G2|eAcd eaaf|gedB cA A2:|
|:eaag aged|c3d BG G2|eaag aged|eaag a3b|
c'3b ae e2|gdeg BA A2|EAcd eaaf|gedB cA A2:|
|:c3B cded|cABc BA A2|c2AB cded|cABG EAAB|
c3B cdef|gedc BG G2|eAcd eaaf|gedB cA A2:|
|:eaag aged|c3d BG G2|eaag aged|eaag a3b|
baag aged|c3d BG G2|EAcd eaaf|gedB cA A2:|

